img/footer__delivery.svg

<svg width="28" height="27" viewBox="0 0 28 27" fill="none" xmlns="http://www.w3.org/2000/svg">
<path d="M26.046 15.8721C25.2629 15.081 24.2017 14.6273 23.0887 14.6078V8.56228C23.0894 8.41344 23.0143 8.27436 22.8894 8.19337L12.0004 0.931147C11.8504 0.829592 11.6536 0.829592 11.5035 0.931147L0.676996 8.14874C0.552014 8.23111 0.477066 8.37093 0.477596 8.52062V18.6628C0.475158 18.8153 0.55159 18.9583 0.679964 19.0407L11.783 26.3088C11.9339 26.408 12.1292 26.408 12.28 26.3088L19.4202 21.3463C19.4518 21.3227 19.4806 21.2957 19.5065 21.266L22.5232 26.5617C22.6021 26.6986 22.7462 26.7851 22.904 26.7907C23.0582 26.7908 23.2013 26.7108 23.2818 26.5796L26.6586 21.2094C26.6734 21.1873 26.6854 21.1632 26.6943 21.138C27.7163 19.4442 27.4524 17.2719 26.0547 15.872L26.046 15.8721ZM12.0331 15.2563L7.10632 11.9837L16.9748 5.32238L21.9968 8.66934L12.0331 15.2563ZM11.7355 1.83846L16.1595 4.78684L6.303 11.4422L1.81954 8.46708L11.7355 1.83846ZM1.37028 9.2227L11.4857 15.9644V25.0444L1.37028 18.4218V9.2227ZM12.3783 25.1516V16.0982L22.1961 9.60655V14.6792C20.1592 15.0632 18.6822 16.8398 18.6766 18.9128C18.6618 19.482 18.7907 20.0458 19.0514 20.5521C19.0089 20.5642 18.9687 20.5833 18.9325 20.6086L12.3783 25.1516ZM26.412 18.9217C26.4091 19.5652 26.2257 20.1952 25.8824 20.7395C25.8698 20.7614 25.8588 20.7843 25.8496 20.8079L22.9311 25.47L20.1315 20.5284C20.1044 20.4557 20.0593 20.3914 20.0006 20.3408C19.7923 20.1712 19.5693 19.6537 19.5693 18.9217C19.5693 17.0305 21.1024 15.4974 22.9936 15.4974C24.8782 15.4941 26.4088 17.0191 26.4121 18.9039C26.412 18.9097 26.412 18.9157 26.412 18.9217Z" fill="white"/>
<path d="M22.9936 16.8243C21.9525 16.8243 21.1076 17.6664 21.1043 18.7075C21.0995 19.7477 21.9386 20.5948 22.9788 20.5997C22.9827 20.5997 22.9866 20.5998 22.9906 20.5997C24.0332 20.5584 24.8447 19.6796 24.8035 18.6371C24.7643 17.6526 23.9752 16.8634 22.9906 16.8243H22.9936ZM23.9813 18.7135C23.9796 19.2617 23.5357 19.7056 22.9876 19.7072C22.7232 19.7061 22.4702 19.5989 22.2855 19.4097C22.0938 19.2253 21.9863 18.9704 21.9879 18.7046C21.9879 18.1557 22.4327 17.711 22.9816 17.711C23.532 17.7093 23.9796 18.1541 23.9813 18.7046C23.9813 18.7075 23.9813 18.7105 23.9813 18.7135Z" fill="white"/>
</svg>

<svg width="28" height="27" fill="none" xmlns="http://www.w3.org/2000/svg"><path d="M26.046 15.872a4.266 4.266 0 00-2.957-1.264V8.562a.437.437 0 00-.2-.369L12 .931a.443.443 0 00-.496 0L.677 8.15a.443.443 0 00-.2.372v10.142a.44.44 0 00.203.378l11.103 7.268c.15.099.346.099.497 0l7.14-4.963a.556.556 0 00.086-.08l3.017 5.296a.458.458 0 00.381.229c.154 0 .297-.08.378-.211l3.377-5.37a.32.32 0 00.035-.072 4.305 4.305 0 00-.64-5.266h-.008zm-14.013-.616l-4.927-3.272 9.869-6.662 5.022 3.347-9.964 6.587zm-.297-13.418l4.424 2.949-9.857 6.655L1.82 8.467l9.915-6.629zM1.37 9.223l10.116 6.741v9.08L1.37 18.422v-9.2zm11.008 15.929v-9.054l9.818-6.491v5.072a4.32 4.32 0 00-3.52 4.234 3.41 3.41 0 00.375 1.64.398.398 0 00-.118.056l-6.555 4.543zm14.034-6.23a3.437 3.437 0 01-.53 1.817.505.505 0 00-.032.069l-2.92 4.662-2.8-4.942a.46.46 0 00-.13-.187c-.209-.17-.432-.687-.432-1.42a3.424 3.424 0 013.425-3.424 3.412 3.412 0 013.418 3.407v.018z" fill="#fff"/><path d="M22.994 16.824a1.89 1.89 0 00-1.89 1.883A1.883 1.883 0 0022.98 20.6h.012a1.89 1.89 0 000-3.776h.003zm.987 1.89a.997.997 0 01-.993.993.987.987 0 01-.703-.297.97.97 0 01-.297-.705.997.997 0 011.993 0v.009z" fill="#fff"/></svg>
